X:1
T:Quase Andante
T:Quase Andante
T:Henrique Pinto
C:Henrique Pinto
%%score ( 1 2 )
L:1/8
Q:1/4=92
M:3/8
K:C
V:1 treble-8 nm="Violão acústico" snm="Viol."
V:2 treble-8 
V:1
"^Andante" G | cGE | dGF | ecG | EGc | fdG | ecG | dGF | B,FG | dGF | ecG | fdG | FGf | ece | dGd | %15
 cGE | C3 :| %17
V:2
 x | C3 | B,3 | C3- | C3 | B,3 | C3 | B,3 | B,3 | B,3 | C3 | B,3- | B,3 | C3 | B,3 | C3 | C3 :| %17

